X: 42030
T: Waltz 63
R: waltz
M: 3/4
K: Gmajor
B2c2|d3B cA|B2 g2 fg|e3e ^ce|A2 a3g|
fg ef d2|df b3a|g3 f af|1 g2:|2 g4||
|:(D2|D)>G B>d e>f|g>f a>g b2|D>G B>d e>f|g>f a>g b2|
a/b/a g/a/g f/g/f|e/f/e d^c d2|d^c cd ef|g4:|
|:fg|a2 fd ef|g2 fg ba|a2 fd ef|g2 b2 b2|
a2 fd ef|g2 fg ba|a2 ^ga ef|g4:|

